X:1
T:Kefka
T:Kefka
T:Nobuo Uematsu
C:Nobuo Uematsu
%%score 1 2 3
L:1/8
Q:1/4=155
M:4/4
K:C
V:1 treble-8 nm="Klassische Gitarre" snm="Git."
V:2 treble-8 nm="Klassische Gitarre" snm="Git."
V:3 treble-8 nm="Klassische Gitarre" snm="Git."
V:1
 .A2 .B2 .c2 .d2 | .e2 .c2 (f2 ed) | .e2 .c2 .B2 .d2 | .c2 .A2 (^G2 AB) | .A2 .F2 (E2 .F2) | %5
 (E2 .F2) .^D2 .E2 | z4 (F2 .E2) | (F2 .E2) (^D2 .E2) |[M:2/4] .F2 !tenuto!E2 | %9
[M:4/4] .A2 .B2 .c2 .d2 | .e2 .c2 (f2 ed) | .e2 .c2 .B2 .d2 | .c2 .A2 (^G2 AB) | %13
"^A" z2 .e2 .e2 .e2 | .e2 .e2 ([Bg]2 .[df]2) | (^d2 .e2) .f2 .g2 | ((f2 .e2)) (3(g^f=f _e2) | %17
 z2 .A2 .A2 .A2 | .A2 .A2 (c2 .B2) | (^G2 .A2) .B2 .c2 | (B2 .A2) .^G2 .A2 | .e2 z (B cA) z c | %22
 .d2 .d2 Pc2 !tenuto!^G2 |:"^B" z2 .e2 .e2 .e2 | .e2 .e2 (g2 .f2) | (^d2 .e2) .f2 .g2 | %26
 (f2 .e2) (3(g^f=f _e2) | z2 .A2 .A2 .A2 | .A2 .A2 (c2 .B2) | (^G2 .A2) .B2 .c2 | %30
 (B2 .A2) .^G2 .A2 :| .e2 z (B cA) z c | .d2 .d2 Pc2 !tenuto!^G2 |"^C" z8 | z8 | z8 | z8 | z8 | %38
 E2 A2 ^G2 AB | A2 E2 [CA]2 [Ec]2 | [Ee]8 | z2 FG .A2 .B2 | [Fc]8 | z2 _ed cBAF | z8 | z8 | z8 | %47
 z8 | .A.A.B.B .c.c.d.d | .e.e.c.c ffed | .e.e.c.c .B.B.d.d | .c.c.A.A z ^G z z | z4 (^G2 AB) || %53
[K:Eb] .c2 .d2 .e2 .f2 | .g2 .e2 (a2 g^e) |[K:C#] .[Gc]2 .[Gc]2 .[Gc]2 .[Gc]2 | %56
 .[=cd]2 .[Ac]2 .[FA]2 .[DF]2 | .[D=A]2 .[=DG]2 .[C^^F]2 .[B,^F]2 | %58
 .[=B,E]2 .[A,=E]2 .[=A,D]2 .[G,^^C]2 | [A,C]8- | [A,C]8 | [=E^^F]8 | z2 d2 =ef^^f^^g | %63
 .a2 z (f ^^fc) z (d | .=e2) z c' d'2 z2 | z2 [=E=Ac]6- | [EAc]2 [D^^GB]6 | %67
 .[G=B=e]2 z (B ^B^^G) z B | .^^c2 .c2 .B2 !tenuto!G2 |:[K:C] z2 .e2 .e2 .e2 | .e2 .e2 (g2 .f2) | %71
 (^d2 .e2) .f2 .g2 | (f2 .e2) (3(g^f=f _e2) | z2 .A2 .A2 .A2 | .A2 .A2 (c2 .B2) | %75
 (^G2 .A2) .B2 .c2 | (B2 .A2) .^G2 .A2 :| .e2 z (B cA) z c | .d2 .d2 Pc2 !tenuto!^G2 | %79
 .e2 .f2 .g2 .^g2 | .a2 .b2 .c'2 .d'2 | .e'2 z (b c'a) z c' | .d'2 .d'2 c'2 !tenuto!^g2 | %83
 z2 ([Ede^g]2 .[ca]2) z2 | z2 ([^Ge]2 !tenuto!A4) |] %85
V:2
 z8 | z8 | z8 | z8 | z8 | z8 | z8 | z8 |[M:2/4] z4 |[M:4/4] .c2 .e2 .a2 .b2 | .c'2 .a2 (d'2 c'b) | %11
 .c'2 .a2 .^g2 .b2 | .a2 .f2 (e2 c2) | z2 .[Ec]2 .[Ec]2 .[Ec]2 | .[Ec]2 .[Ec]2 G2 .[Fc]2 | %15
 .[_Ec]2 .[=Ec]2 .[Fc]2 .[Gc]2 | .[Ac]2 .[Ac]2 .B2 .B2 | .[cf]2 .[cf]2 .[cf]2 .[cf]2 | %18
 .[cf]2 .[cf]2 ([_ef]2 .[df]2) | .[cf]2 .[cf]2 .[cf]2 .[cf]2 | .[cf]2 .[cf]2 .[Bf]2 .[cf]2 | z8 | %22
 z8 |: z2 .[Ac]2 .[Ac]2 .[Ac]2 | .[Ac]2 .[Ac]2 .[AB]2 .[Ad]2 | .[Ace]2 .[Ace]2 .[Acg]2 .[Acg]2 | %26
 .[Aca]2 .[Aca]2 .[Bb]2 .[Bb]2 | .[cf]2 .[cf]2 .[cf]2 .[cf]2 | .[cf]2 .[cf]2 ([_ef]2 .[df]2) | %29
 .[cf]2 .[cf]2 .[cf]2 .[cf]2 | .[cf]2 .[cf]2 .[Bf]2 .[cf]2 :| z8 | z8 | .[Ae]2 .[Be]2 .[ce]2 z2 | %34
 BA^GA .B2 z2 | .[Ae]2 .[Be]2 .[ce]2 z2 | [Bd][Ac][^GB][Ac] .[Bd]2 z2 | %37
 .[Ae]2 .[Be]2 .[ce]2 .[de]2 | [Ace]4 [Bde]4 | [Ace]4 [Gce]4 | [FAc]8- | [FAc] z AB .c2 .d2 | %42
 [_EA^d]8 | z8 | z8 | z4 z2 z .[eae'] | z8 | z4 z2 z .[eae'] | z8 | z8 | z8 | z8 | z4 (E2 FG) || %53
[K:Eb] .G2 .=A2 .B2 .c2 | .d2 .B2 (e2 d^B) |[K:C#] .C2 .D2 .E2 .G2 | .=A2 .E2 .^^C2 .=B,2 | %57
 .C2 .=B,2 .A,2 .^^G,2 | .G,2 .^^F,2 .^F,2 .E,2 | [=E,^^F,]8- | [E,F,]8 | [A,C]8 | z8 | z8 | z8 | %65
 z8 | z8 | z8 | z8 |:[K:C] z2 .[Ac]2 .[Ac]2 .[Ac]2 | .[Ac]2 .[Ac]2 .[AB]2 .[Ad]2 | %71
 .[Ace]2 .[Ace]2 .[Acg]2 .[Acg]2 | .[Aca]2 .[Aca]2 .[Bb]2 .[Bb]2 | .[cf]2 .[cf]2 .[cf]2 .[cf]2 | %74
 .[cf]2 .[cf]2 ([_ef]2 .[df]2) | .[cf]2 .[cf]2 .[cf]2 .[cf]2 | .[cf]2 .[cf]2 .[Bf]2 .[cf]2 :| %77
 .B2 z (^F GE) z G | .A2 .A2 G2 !tenuto!^D2 | z8 | z8 | .e2 z (B cA) z c | .d2 .d2 c2 !tenuto!^G2 | %83
 z8 | z8 |] %85
V:3
 z8 | z8 | z8 | z8 | z2 .F,2 (E,2 .F,2) | (E,2 .F,2) .^D,2 .E,2 | z4 (F,2 .E,2) | %7
 (F,2 .E,2) (^D,2 .E,2) |[M:2/4] .F,2 !tenuto!E,2 |[M:4/4] z8 | z8 | z8 | z8 | A,2 z2 A,2 z2 | %14
 A,2 z2 z4 | A,2 z2 A,2 z2 | A,2 z2 _E,4 | F,2 z2 F,2 z2 | F,2 z2 z4 | F,2 z2 F,2 z2 | F,2 z2 F,4 | %21
 .E2 z (B, CA,) z C | .D2 .D2 .C2 !tenuto!^G,2 |: A,2 z2 E,2 z2 | A,2 z2 z2 E,2 | A,2 z2 E,2 z2 | %26
 A,2 z2 _E,4 | F,2 z2 C2 z2 | A,2 z2 _E,2 z2 | F,2 z2 C2 z2 | A,2 z2 F,4 :| .E2 z (B, CA,) z C | %32
 .D2 .D2 .C2 !tenuto!^G,2 | .A,2 .B,2 .C2 z2 | B,A,^G,A, .B,2 z2 | .A,2 .B,2 .C2 z2 | %36
 DCB,C .D2 z2 | .A,2 .B,2 .C2 .D2 | C4 B,4 | A,4 G,4 | F,8- | F,8 | F,8 | z8 | .A,2 .B,2 .C2 .D2 | %45
 .E2 .C2 (F2 ED) | .E2 .C2 .B,2 .D2 | .C2 .A,2 (^G,2 A,B,) | .A,2 .B,2 .C2 .D2 | .E2 .C2 (F2 ED) | %50
 .E2 .C2 .B,2 .D2 | .C2 .A,2 (^G,2 A,B,) | z4 (^G,2 A,B,) ||[K:Eb] .C2 .D2 .E2 .F2 | %54
 .G2 .E2 ((A2 G^E)) |[K:C#] z8 | z8 | .^^G,2 .^^F,2 .^F,2 .E,2 | .=E,2 .D,2 .^^C,2 .^C,2 | %59
 z2 .=E,.E, .E,2 .F,2 | .G,2 A,2 =B,C^^C=E | z2 .A,.A, .A,2 .B,2 | .C2 D2 =EF^^F^^G | %63
 .A2 z (F ^^FC) z (D | .=E2) z B c2 z (D, | =E,2) z (F, ^^F,D,) z (E, | F,2) z G, =A,E, z F, | %67
 .[G,=E]2 z (=B, ^B,^^G,) z B, | .^^C2 .C2 .B,2 !tenuto!G,2 |:[K:C] A,2 z2 E,2 z2 | A,2 z2 z2 E,2 | %71
 A,2 z2 E,2 z2 | A,2 z2 _E,4 | F,2 z2 C2 z2 | A,2 z2 _E,2 z2 | F,2 z2 C2 z2 | A,2 z2 F,4 :| %77
 .E2 z (B, CA,) z C | .D2 .D2 .C2 !tenuto!^G,2 | .E2 z (B, CA,) z C | .D2 .D2 .C2 !tenuto!^G,2 | %81
 .E2 .D2 .C2 .B,2 | .D2 .C2 .B,2 .A,2 | z2 !tenuto!_B,2 z2 .A,2 | .^D2 (E2 !tenuto!A,4) |] %85

